X:258
T:Reel de lapin
R:Reel
S:Richard Darsie's web page
Z:Transcription, chords:Mike Long
M:C|
L:1/8
K:G
D2|"G"G2 Bd gagf|"C"edcB ABAF|"D"DEFG ABAF|"G"GABc "D"d2 D2|\
"G"G2 Bd gagf|
"C"edcB ABAF|"D"DEFG A2 e2|"D"dcBA "G"G2:|\
|:Bc|"G"dBGB DGBc|"G"dBGB "D"A2 AB|
"D"cAFA DFAB|"D"cAFA "G"d2 Bc|"G"dBGB DGBc|"G"dBGB "D"A2 AB|"D"cAFA D2 e2|"D"dcBA "G"G2:|
